!!!SOCIAL_FUNCTION:	songs of social dances
!!!PDT:	1958
!!!OTL: No_20_Social_Dance_Song_(a).krn
!!!REG: Northern California
!!!LANG: Non-Tone
!!!LING_GROUP: Penutian
**kern
*staff1
=1-
*clefF4
*k[f#c#g#]
*M2/4
8c#\L
(16c#\L
16B\JJ)
4B\
=2
8B\L
(16B\L
16A\JJ)
8A\
8r
=3
8c#\L
(16c#\L
16B\JJ)
4B\
=4
(16B\LL
16A\J)
8A\J
8A\
8r
=5
8B\L
(16B\L
16A\JJ)
4B\
=6
(16B\LL
16A\J)
8A\J
8A\
8r
=7
8A\L
8B\J
4B\
=8
(16B\LL
16A\)
(16F#\
16E\JJ)
8E\
8r
=9
8B\L
(16B\L
16c#\JJ)
8.B\L
16c#\Jk
=10
(16c#\LL
16B\)
(16B\
16A\JJ)
8A\
8r
=11!|:
8c#\L
(16c#\L
16B\JJ)
4B\
=12
(16B\LL
16A\J)
8A\J
4A\
=13:|!
8A\L
8B\J
4B\
=14
(16B\LL
16A\)
(16F#\
16E\JJ)
4E\
=15
8B\L
(16B\L
16c#\JJ)
8.B\L
16c#\Jk
=16
(16c#\LL
16B\)
(16B\
16A\JJ)
8A\
8r
=17
8c#\L
(16c#\L
16B\JJ)
4B\
=18
(16B\LL
16A\J)
8A\J
8A\
8r
=19
8A\L
8B\J
4B\
=20
(16B\LL
16A\)
(16F#\
16E\JJ)
4E\
=21
8B\L
(16B\L
16c#\JJ)
8.B\L
16c#\Jk
=22
(16c#\LL
16B\)
(16B\
16A\JJ)
8A\
8r
==
*-
